X: 1
N: The Silver Grey
N: 8 x 32S 3C
P: Miss Dale
M: 4/4
R: Strathspey
C: arr. T. Traub 8-4-2003
L: 1/8
K: A
a|"A"e<cc>B "D"A<FF>A|"A"E>FA>c "D"d2 d>f|"A"e<cc>B "F#m"A<FF>c|"Bm"d<f"A"e>c "E"B3 a|"A"e<cc>B "D"A<FF>A|
"A"E>FA>c "D"d2 d>f|"D"(3fga "A"(3edc "D"(3def "A"(3edc |"Bm"a>f f/e/d/c/ "E"B2 B||f|"A"e>ca>c e>ca>c|"D"f/e/d/c/ "A"ac "E"e2 ef|
"A"e>ca>c e>ca>c|"D"(3fga "A"(3edc "E"B2 B<f|"A"e>ca>c "D"f/e/d/c/ "A"a>c|"A"e>ca>e "D"f2 fg|"A"(3agf "A"(3edc "D"(3def "A"(3efg|"D"a>f "Bm"f/e/d/c/ "E"B2 B|]
